svg/OSM-icons/amenity #7bffff °373737 !label=enamenities,deEinrichtungen/12340;amenity=recycling;!#recycling..paper=yes;!label=enrecycling paper,deAltpapier- container.svg

<svg xmlns="http://www.w3.org/2000/svg" viewBox="0 0 580 580" enable-background="new 0 0 580 580"><path fill="#111" stroke="#eee" stroke-width="3.408" d="m66.28 1.768c-41.34 0-64.57 21.371-64.57 65.04v450.12c0 40.844 20.895 62.23 62.19 62.23h452.02c41.31 0 62.23-20.315 62.23-62.23v-450.12c0-42.601-20.925-65.04-63.52-65.04-.004 0-448.5-.143-448.35 0z"/><g fill="#fff"><path d="m129.84 199.98l-33.07-57.62h-66.51l27.04 15.65-16.713 28.804c-1.426 2.613-2.138 5.34-2.138 8.183 0 2.844.712 5.572 2.138 8.183l26.307 45.875c1.187-3.321 2.374-6.168 3.56-8.541l32.722-56.19 26.666 15.651m-49.42 46.23c-1.903 3.083-2.854 6.4-2.854 9.953 0 5.456 1.957 10.08 5.872 13.871 3.914 3.791 8.595 5.687 14.04 5.687h65.44v-52.985h-68.993c-.478.949-2.257 4.03-5.339 9.247l-8.173 14.227m88.55-131.24h66.15l33.427-57.61-27.02 15.65-16.724-28.815c-3.082-5.448-7.821-8.172-14.217-8.172h-52.636c2.134 2.367 3.914 4.736 5.339 7.109l32.35 56.19-5.328 3.201-21.338 12.448m-32.363-76.1c-7.59 0-13.281 3.317-17.07 9.952l-33.07 56.902c12.56 7.351 27.853 16.12 45.875 26.318 10.665-18.254 22.16-38.17 34.49-59.746l-13.154-23.475c-3.79-6.634-9.48-9.951-17.07-9.951m85 183.14v-6.403-24.528l-33.08 57.61 33.08 57.26v-30.942h33.07c6.402 0 11.261-2.728 14.575-8.183l26.319-45.876c-3.554.949-6.516 1.422-8.889 1.422l-65.07-.358m49.08-97.44c-1.187.709-16.483 9.482-45.888 26.318 14.702 25.367 26.322 45.4 34.86 60.1h26.666c7.829 0 13.638-3.321 17.43-9.963 3.553-6.403 3.433-12.922-.358-19.557l-32.71-56.902"/><path d="m351.92 219v23.99h163.69 6.4v6.4 260.62h23.99v-291.01z"/><path d="m351.92 249.39h-30.391v291.01h194.08v-30.392-260.62h-163.68m134.89 239.57h-134.89v-5.331h134.89v5.331m-.0001-26.531h-134.89v-5.332h134.89v5.332m-.0001-26.533h-134.89v-5.332h134.89v5.332m-.0001-26.53h-134.89v-5.332h134.89v5.332m-.0001-26.532h-134.89v-5.332h134.89v5.332m-.0001-26.531h-134.89v-5.331h134.89v5.331m-.0001-26.532h-134.89v-5.332h134.89v5.332m-.0001-26.532h-134.89v-5.332h134.89v5.332"/></g></svg>

<?xml version="1.0" encoding="utf-8"?>
<!-- Generator: Adobe Illustrator 15.0.0, SVG Export Plug-In . SVG Version: 6.00 Build 0)  -->
<!DOCTYPE svg PUBLIC "-//W3C//DTD SVG 1.1//EN" "http://www.w3.org/Graphics/SVG/1.1/DTD/svg11.dtd">
<svg version="1.1" id="Layer_1" xmlns="http://www.w3.org/2000/svg" xmlns:xlink="http://www.w3.org/1999/xlink" x="0px" y="0px"
	 width="580px" height="580px" viewBox="0 0 580 580" enable-background="new 0 0 580 580" xml:space="preserve">
<g id="Layer_1_1_">
	<g id="Layer_2">
		<g id="g1327">
			<path id="path1329" fill="#111111" stroke="#EEEEEE" stroke-width="3.408" d="M66.275,1.768
				c-41.335,0-64.571,21.371-64.571,65.036v450.123c0,40.844,20.895,62.229,62.192,62.229H515.92
				c41.307,0,62.229-20.315,62.229-62.229V66.804c0-42.601-20.925-65.036-63.521-65.036C514.624,1.768,66.133,1.625,66.275,1.768z"
				/>
		</g>
	</g>
</g>
<g id="Layer_3">
	<g>
		<path id="flowRoot3192" fill="#FFFFFF" d="M129.84,199.983l-33.069-57.618H30.263l27.035,15.65l-16.713,28.804
			c-1.426,2.613-2.138,5.34-2.138,8.183c0,2.844,0.712,5.572,2.138,8.183l26.307,45.875c1.187-3.321,2.374-6.168,3.56-8.541
			l32.722-56.187L129.84,199.983z M80.415,246.217c-1.903,3.083-2.854,6.4-2.854,9.953c0,5.456,1.957,10.079,5.872,13.871
			c3.914,3.791,8.595,5.687,14.043,5.687h65.444v-52.985H93.927c-0.478,0.949-2.257,4.031-5.339,9.247L80.415,246.217z
			 M168.964,114.982h66.149l33.427-57.607l-27.024,15.65L224.792,44.21c-3.082-5.448-7.821-8.172-14.217-8.172h-52.636
			c2.134,2.367,3.914,4.736,5.339,7.109l32.352,56.186l-5.328,3.201L168.964,114.982z M136.601,38.882
			c-7.59,0-13.281,3.317-17.072,9.952L86.46,105.736c12.56,7.351,27.853,16.124,45.875,26.318
			c10.665-18.254,22.162-38.17,34.49-59.746l-13.154-23.475C149.881,42.199,144.191,38.882,136.601,38.882L136.601,38.882z
			 M221.602,222.025v-6.403v-24.528l-33.08,57.608l33.08,57.26v-30.942h33.07c6.402,0,11.261-2.728,14.575-8.183l26.319-45.876
			c-3.554,0.949-6.516,1.422-8.889,1.422L221.602,222.025z M270.679,124.587c-1.187,0.709-16.483,9.482-45.888,26.318
			c14.702,25.367,26.322,45.401,34.86,60.104h26.666c7.829,0,13.638-3.321,17.43-9.963c3.553-6.403,3.433-12.922-0.358-19.557
			L270.679,124.587z"/>
	</g>
</g>
<polygon fill="#FFFFFF" points="351.923,219 351.923,242.993 515.608,242.993 522.007,242.993 522.007,249.391 522.007,510.007 
	546,510.007 546,219 "/>
<path fill="#FFFFFF" d="M351.923,249.391h-30.391v291.007h194.076v-30.392V249.391H351.923z M486.817,488.963H351.923v-5.331
	h134.895V488.963z M486.817,462.432H351.923V457.1h134.895V462.432z M486.817,435.899H351.923v-5.332h134.895V435.899z
	 M486.817,409.369H351.923v-5.332h134.895V409.369z M486.817,382.837H351.923v-5.332h134.895V382.837z M486.817,356.306H351.923
	v-5.331h134.895V356.306z M486.817,329.774H351.923v-5.332h134.895V329.774z M486.817,303.242H351.923v-5.332h134.895V303.242z"/>
</svg>
